X:694
T: The King's
Z: Piano Box Version by Martin Fleischmann
H: Created 2015-04-11 /  Last Modified 2015-04-20
R: reel
M: 4/4
L: 1/8
K: Ador
A,2 EA, FA,EA,|~A,2 ED CA,A,E|A,2 EA, FDEF|1GE DC B,G,CB,:|2G2 DC B,G,G,d||
^cA (3AAA eaed|^cA (3AAA BGBd|^cA (3AAA eaef|ged=c BGBd|
^cA (3AAA eaed|^cAA=c  BGBd|=c2 dc B2 dB|cABG GEDG||

